packages/icons/svg/User_Card_IDCard_64px.svg

<svg xmlns="http://www.w3.org/2000/svg" viewBox="0 0 64 64"><path d="M57 13H7a2 2 0 00-2 2v34a2 2 0 002 2h50a2 2 0 002-2V15a2 2 0 00-2-2zm-1 35H8V16h48z"/><path d="M14.5 43a1.5 1.5 0 001.5-1.5 6.5 6.5 0 0113 0 1.5 1.5 0 003 0 9.52 9.52 0 00-5.73-8.72 6.5 6.5 0 10-7.54 0A9.52 9.52 0 0013 41.5a1.5 1.5 0 001.5 1.5zm8-19a3.5 3.5 0 11-3.5 3.5 3.5 3.5 0 013.5-3.5zM35.5 25h14a1.5 1.5 0 000-3h-14a1.5 1.5 0 000 3zM35.5 32h14a1.5 1.5 0 000-3h-14a1.5 1.5 0 000 3z"/></svg>

<svg xmlns="http://www.w3.org/2000/svg" viewBox="0 0 64 64"><defs></defs><g id="Icon"><path  d="M57,13H7a2,2,0,0,0-2,2V49a2,2,0,0,0,2,2H57a2,2,0,0,0,2-2V15A2,2,0,0,0,57,13ZM56,48H8V16H56Z"/><path  d="M14.5,43A1.5,1.5,0,0,0,16,41.5a6.5,6.5,0,0,1,13,0,1.5,1.5,0,0,0,3,0,9.52,9.52,0,0,0-5.73-8.72,6.5,6.5,0,1,0-7.54,0A9.52,9.52,0,0,0,13,41.5,1.5,1.5,0,0,0,14.5,43Zm8-19A3.5,3.5,0,1,1,19,27.5,3.5,3.5,0,0,1,22.5,24Z"/><path  d="M35.5,25h14a1.5,1.5,0,0,0,0-3h-14a1.5,1.5,0,0,0,0,3Z"/><path  d="M35.5,32h14a1.5,1.5,0,0,0,0-3h-14a1.5,1.5,0,0,0,0,3Z"/></g></svg>
